packages/design-assets/icons/12px/Sort-Ascending.svg

<svg width="12" height="12" xmlns="http://www.w3.org/2000/svg"><path d="M2 4H0l4-4v12H2V4zm5 4v3h3V8H7zM6 7h5v5H6V7zm0-7h5v5H6V0z" fill="#818F99" fill-rule="evenodd"/></svg>

<?xml version="1.0" encoding="UTF-8"?>
<svg width="12px" height="12px" viewBox="0 0 12 12" version="1.1" xmlns="http://www.w3.org/2000/svg" xmlns:xlink="http://www.w3.org/1999/xlink">
    <!-- Generator: Sketch 54.1 (76490) - https://sketchapp.com -->
    <title>Icons/12px/Sort-Ascending</title>
    <desc>Created with Sketch.</desc>
    <g id="Icons/12px/Sort-Ascending" stroke="none" stroke-width="1" fill="none" fill-rule="evenodd">
        <path d="M2,4 L0,4 L4,0 L4,12 L2,12 L2,4 Z M7,8 L7,11 L10,11 L10,8 L7,8 Z M6,7 L11,7 L11,12 L6,12 L6,7 Z M6,0 L11,0 L11,5 L6,5 L6,0 Z" id="i-12-sort-ascending" fill="#818F99"></path>
    </g>
</svg>
